X: 070838
T: Gallope (An)
S: "Traditional Irish Music" (K.Tweed)
Z: B.Black
L: 1/8
M: 2/4
R: polka
K: D
D2 FD/F/|AF/A/ dF|AG GE|BA FA|
D2 FD/F/|AF/A/ dF|AG GE|ED DA :|
AG-GE|BA F>A|AG-GE|BA FA|
DA,/D/ FD/F/|AF/A/ dF|AG GE|ED D2 :|
